X:1
T:Slaves are they that heap up mountains
T:John Stafford Smith (1750-1836)
%%score [ 1 2 3 4 ]
L:1/8
Q:1/4=70
M:4/4
K:D
V:1 treble nm="I"
V:2 treble nm="II"
V:3 treble nm="III"
V:4 treble nm="IV"
V:1
|: B,3 B, | C2 D2 E2 F2 | B2 B,2 (BA) (GF) | (EF) (GE) (AG) (FE) | D4 C3 C | B,2 F2 B3 c | %6
w: Slaves are|they that heap up|moun- tains, still _ de- *|sir- * ing, _ more _ and _|more, Still de-|sir- ing more and|
 ^A4 d2 c2 | B,2 z2 z4 | C2 z2 z4 | D2 z2 z4 | E2 F2 G2 F2 | E2 D2 C2 B,2 | F2 B,2 F2 F2 | %13
w: more, more, more,|more,|more,|more!|Still de- sir- ing|more and more, de-|sir- ing more and|
 !fermata!B,4 :| %14
w: more!|
V:2
|: D3 d | c2 B2 B2 ^A2 | B2 F2 B3 B | B2 B2 A3 A | A2 F2 ^G3 ^A | B2 =A2 =G3 G | F4 z4 | F6 ^G2 | %8
w: We'll ca-|rouse in Bac- chus'|foun- tains, Nev- er|dream- ing, nev- er,|nev- er, nev- er|dream- ing to be|poor;|Nev- er|
 ^A6 A2 | B6 B2 | B8 | z4 c2 d2 | ^A2 B2 F2 F2 | !fermata!F4 :| %14
w: dream- ing|to be|poor.||||
V:3
|: B3 B | A2 F2 c2 c2 | d2 D2 D3 D | E2 E2 C2 C2 | D4 E3 E | (DE) F2 F2 E2 | F4 B2 ^A2 | z4 D2 z2 | %8
w: Give us|then a cup of|liq- uor, Fill it|up un- to the|brim, fill it|up _ un- to the|brim, fill, fill|fill,|
 z4 E2 z2 | z4 F2 z2 | z4 E2 F2 | G2 F2 E2 D2 | C2 D2 D2 C2 | !fermata!D3 B, :| %14
w: fill,|fill!|Fill it|up un- to the|brim, un- to the|brim! For|
V:4
|: F3 F | E2 D2 C2 F2 | D2 B,2 F3 F | G2 G2 E3 E | F4 E3 C | F2 C2 D2 E2 | C4 z4 | z8 | z8 | z8 | %10
w: then me-|thinks our wits grow|quick- er, When our|brains in liq- uor|swim, when our|brains in liq- uor|swim,||||
 z8 | z4 ^A2 B2 | c2 B2 B2 ^A2 | !fermata!B4 :| %14
w: |When our|brains in liq- uor|swim.|

